assets/icons/medium.svg

<?xml version="1.0" encoding="UTF-8"?>
<svg width="31px" height="31px" viewBox="0 0 31 31" version="1.1" xmlns="http://www.w3.org/2000/svg" xmlns:xlink="http://www.w3.org/1999/xlink">
    <!-- Generator: Sketch 59.1 (86144) - https://sketch.com -->
    <title>medium</title>
    <desc>Created with Sketch.</desc>
    <defs>
        <path d="M2.18749994,2.18749994 L2.18749994,32.8125001 L32.8125001,32.8125001 L32.8125001,2.18749994 L2.18749994,2.18749994 Z M27.6308594,9.44042965 L25.9902344,11.0126953 C25.8466797,11.1220703 25.7783203,11.2998047 25.8056641,11.4707031 L25.8056641,23.0439453 C25.7783203,23.2216797 25.8466797,23.3994141 25.9902344,23.5019532 L27.5966797,25.0742188 L27.5966797,25.4228516 L19.5302734,25.4228516 L19.5302734,25.0878907 L21.1914063,23.4746094 C21.3554688,23.3105469 21.3554688,23.2626953 21.3554688,23.0166016 L21.3554688,13.6582031 L16.734375,25.3886719 L16.1123047,25.3886719 L10.7324218,13.6582031 L10.7324218,21.5195313 C10.6845703,21.8476563 10.8007812,22.1826172 11.0332031,22.421875 L13.1933594,25.0400391 L13.1933594,25.3886719 L7.05468746,25.3886719 L7.05468746,25.0400391 L9.21484372,22.421875 C9.44726559,22.1826172 9.54980465,21.8476563 9.49511715,21.5195313 L9.49511715,12.4277344 C9.5224609,12.1748047 9.42675778,11.9287109 9.23535153,11.7578125 L7.31445308,9.44042965 L7.31445308,9.09179684 L13.2822265,9.09179684 L17.8896484,19.2089844 L21.9433594,9.09863278 L27.6308594,9.09863278 L27.6308594,9.44042965 Z" id="path-1"></path>
    </defs>
    <g id="Page-1" stroke="none" stroke-width="1" fill="none" fill-rule="evenodd">
        <g id="Desktop-HD-1" transform="translate(-1158.000000, -6486.000000)">
            <g id="footer" transform="translate(-0.000000, 6418.000000)">
                <g id="social_media" transform="translate(1106.000000, 66.000000)">
                    <g id="medium" transform="translate(50.000000, 0.000000)">
                        <mask id="mask-2" fill="white">
                            <use xlink:href="#path-1"></use>
                        </mask>
                        <g fill-rule="nonzero"></g>
                        <g id="color/white" mask="url(#mask-2)" fill="#FFFFFF" fill-rule="evenodd">
                            <rect id="Rectangle" x="0" y="0" width="35" height="35"></rect>
                        </g>
                    </g>
                </g>
            </g>
        </g>
    </g>
</svg>

<svg xmlns="http://www.w3.org/2000/svg" xmlns:xlink="http://www.w3.org/1999/xlink" width="31" height="31" viewBox="0 0 31 31"><defs><path id="a" d="M2.187 2.187v30.626h30.626V2.187H2.187zM27.631 9.44l-1.64 1.573a.482.482 0 0 0-.185.458v11.573a.47.47 0 0 0 .184.458l1.607 1.572v.349H19.53v-.335l1.661-1.613c.164-.164.164-.212.164-.458v-9.359l-4.62 11.73h-.623l-5.38-11.73v7.862a1.08 1.08 0 0 0 .301.902l2.16 2.618v.349H7.055v-.349l2.16-2.618c.232-.24.335-.574.28-.902v-9.092a.78.78 0 0 0-.26-.67L7.315 9.44v-.348h5.967l4.608 10.117 4.053-10.11h5.688v.341z"/></defs><g fill="none" fill-rule="evenodd" transform="translate(-2 -2)"><mask id="b" fill="#fff"><use xlink:href="#a"/></mask><g fill="#FFF" mask="url(#b)"><path d="M0 0h35v35H0z"/></g></g></svg>
